images/wtc.svg

<svg height="250" viewBox="0 0 250 250" width="250" xmlns="http://www.w3.org/2000/svg"><path d="m67.527344 165.796875-59.453125 26.132813-1.984375-165.507813 59.457031-20.324219zm0 0" fill="#8400fd"/><path d="m12.035156 197.734375c-2.574218 0-4.953125-1.160156-7.132812-3.191406-2.972656-2.90625-4.757813-7.550781-4.757813-12.488281v-150.40625c0-7.257813 3.765625-13.355469 8.917969-15.097657l48.554688-15.96875c3.765624-1.164062 7.730468-.292969 10.902343 2.902344 3.167969 3.195313 4.953125 8.128906 4.953125 13.355469v146.050781c0 7.261719-3.765625 13.9375-9.117187 15.972656l-48.949219 18.292969c-1.191406.289062-2.179688.578125-3.371094.578125zm43.402344-179.441406c-.59375 0-1.386719 0-1.980469.289062l-37.65625 13.9375c-3.367187 1.164063-5.945312 5.808594-5.945312 11.035157v130.660156c0 3.484375 1.191406 6.96875 3.171875 9.003906 1.980468 2.03125 4.359375 2.902344 6.738281 1.742188l38.050781-15.972657c3.566406-1.449219 6.144532-6.386719 6.144532-11.902343v-126.597657c0-3.773437-1.191407-7.257812-3.171876-9.582031-1.785156-1.742188-3.566406-2.613281-5.351562-2.613281zm0 0" fill="#fff"/><path d="m109.144531 220.964844-59.453125 26.132812-1.984375-165.507812 59.457031-20.324219zm0 0" fill="#02ffdb"/><path d="m55.042969 249.710938c-2.378907 0-4.757813-1.164063-6.738281-3.195313-2.777344-2.902344-4.558594-7.257813-4.558594-12.195313v-145.46875c0-6.96875 3.566406-13.066406 8.519531-14.519531l45.980469-15.390625c3.566406-1.160156 7.332031 0 10.304687 2.90625 2.972657 3.191406 4.558594 7.839844 4.558594 12.773438v141.40625c0 7.257812-3.566406 13.648437-8.71875 15.390625l-46.375 17.710937c-.992187.289063-1.984375.582032-2.972656.582032zm42.011719-179.152344c-.59375 0-1.386719 0-1.980469.289062l-37.65625 13.9375c-3.367188 1.160156-5.945313 5.808594-5.945313 11.035156v130.660157c0 3.484375 1.191406 6.96875 3.171875 9 1.984375 2.035156 4.359375 2.90625 6.738281 1.742187l38.050782-15.96875c3.566406-1.453125 6.144531-6.386718 6.144531-11.90625v-126.59375c0-3.777344-1.1875-7.261718-3.171875-9.582031-1.78125-1.742187-3.566406-2.613281-5.351562-2.613281zm0 0" fill="#fff"/><path d="m154.726562 168.699219-59.453124 26.132812-1.984376-165.503906 59.457032-20.328125zm0 0" fill="#8400fd"/><path d="m100.625 197.734375c-2.378906 0-4.757812-1.160156-6.738281-3.191406-2.777344-2.90625-4.558594-7.261719-4.558594-12.195313v-146.050781c0-6.96875 3.566406-13.066406 8.519531-14.519531l45.78125-15.390625c3.566406-1.160157 7.332032 0 10.304688 2.90625 2.972656 3.191406 4.558594 7.839843 4.558594 12.773437v141.695313c0 7.261719-3.566407 13.648437-8.71875 15.390625l-46.175782 17.710937c-.992187.582031-1.984375.871094-2.972656.871094zm42.011719-179.441406c-.59375 0-1.386719 0-1.980469.289062l-37.851562 13.9375c-3.371094 1.164063-5.945313 5.808594-5.945313 11.035157v130.660156c0 3.484375 1.1875 6.96875 3.167969 9.003906 1.984375 2.03125 4.558594 2.902344 6.9375 1.742188l37.851562-15.972657c3.570313-1.449219 6.144532-6.386719 6.144532-11.902343v-126.597657c0-3.773437-1.1875-7.257812-3.171876-9.582031-1.582031-1.742188-3.367187-2.613281-5.152343-2.613281zm0 0" fill="#fff"/><path d="m200.308594 220.964844-59.453125 26.132812-1.984375-165.507812 59.457031-20.324219zm0 0" fill="#02ffdb"/><path d="m144.816406 250c-2.574218 0-4.953125-1.160156-7.132812-3.195312-2.972656-2.902344-4.757813-7.546876-4.757813-12.484376v-150.40625c0-7.257812 3.765625-13.355468 8.917969-15.097656l48.554688-15.972656c3.765624-1.160156 7.730468-.289062 10.902343 2.90625 3.171875 3.191406 4.953125 8.128906 4.953125 13.066406v146.050782c0 7.257812-3.765625 13.9375-9.117187 15.96875l-48.949219 18.292968c-1.1875.582032-2.179688.871094-3.371094.871094zm43.402344-179.441406c-.59375 0-1.386719 0-1.980469.289062l-37.65625 13.9375c-3.367187 1.160156-5.945312 5.808594-5.945312 11.035156v130.660157c0 3.484375 1.191406 6.96875 3.171875 9 1.980468 2.035156 4.359375 2.90625 6.738281 1.742187l38.050781-15.96875c3.566406-1.453125 6.144532-6.386718 6.144532-11.90625v-126.59375c0-3.777344-1.1875-7.261718-3.171876-9.582031-1.78125-1.742187-3.566406-2.613281-5.351562-2.613281zm0 0" fill="#fff"/><path d="m245.890625 165.796875-59.453125 26.132813-1.984375-165.507813 59.457031-20.324219zm0 0" fill="#8400fd"/><path d="m188.417969 197.734375c-2.574219 0-4.953125-1.160156-7.132813-3.191406-2.972656-2.90625-4.757812-7.550781-4.757812-12.488281v-150.40625c0-7.257813 3.765625-13.355469 8.917968-15.097657l48.554688-15.96875c3.765625-1.164062 7.730469-.292969 10.898438 2.902344 3.171874 3.195313 4.957031 8.128906 4.957031 13.066406v146.050781c0 7.257813-3.765625 13.9375-9.117188 15.96875l-48.949219 18.292969c-1.191406.582031-2.183593.871094-3.371093.871094zm43.402343-179.441406c-.59375 0-1.386718 0-1.980468.289062l-37.65625 13.9375c-3.367188 1.164063-5.945313 5.808594-5.945313 11.035157v130.660156c0 3.484375 1.1875 6.96875 3.171875 9.003906 1.980469 2.03125 4.359375 2.902344 6.738282 1.742188l38.050781-15.972657c3.566406-1.449219 6.144531-6.386719 6.144531-11.902343v-126.597657c0-3.773437-1.191406-7.257812-3.171875-9.582031-1.785156-1.742188-3.566406-2.613281-5.351563-2.613281zm0 0" fill="#fff"/></svg>

<svg xmlns="http://www.w3.org/2000/svg" xmlns:xlink="http://www.w3.org/1999/xlink" width="250px" height="250px" viewBox="0 0 250 250" version="1.1">
<g id="surface1">
<path style=" stroke:none;fill-rule:nonzero;fill:rgb(51.764709%,0%,99.215686%);fill-opacity:1;" d="M 67.527344 165.796875 L 8.074219 191.929688 L 6.089844 26.421875 L 65.546875 6.097656 Z M 67.527344 165.796875 "/>
<path style=" stroke:none;fill-rule:nonzero;fill:rgb(100%,100%,100%);fill-opacity:1;" d="M 12.035156 197.734375 C 9.460938 197.734375 7.082031 196.574219 4.902344 194.542969 C 1.929688 191.636719 0.144531 186.992188 0.144531 182.054688 L 0.144531 31.648438 C 0.144531 24.390625 3.910156 18.292969 9.0625 16.550781 L 57.617188 0.582031 C 61.382812 -0.582031 65.347656 0.289062 68.519531 3.484375 C 71.6875 6.679688 73.472656 11.613281 73.472656 16.839844 L 73.472656 162.890625 C 73.472656 170.152344 69.707031 176.828125 64.355469 178.863281 L 15.40625 197.15625 C 14.214844 197.445312 13.226562 197.734375 12.035156 197.734375 Z M 55.4375 18.292969 C 54.84375 18.292969 54.050781 18.292969 53.457031 18.582031 L 15.800781 32.519531 C 12.433594 33.683594 9.855469 38.328125 9.855469 43.554688 L 9.855469 174.214844 C 9.855469 177.699219 11.046875 181.183594 13.027344 183.21875 C 15.007812 185.25 17.386719 186.121094 19.765625 184.960938 L 57.816406 168.988281 C 61.382812 167.539062 63.960938 162.601562 63.960938 157.085938 L 63.960938 30.488281 C 63.960938 26.714844 62.769531 23.230469 60.789062 20.90625 C 59.003906 19.164062 57.222656 18.292969 55.4375 18.292969 Z M 55.4375 18.292969 "/>
<path style=" stroke:none;fill-rule:nonzero;fill:rgb(0.784314%,100%,85.882354%);fill-opacity:1;" d="M 109.144531 220.964844 L 49.691406 247.097656 L 47.707031 81.589844 L 107.164062 61.265625 Z M 109.144531 220.964844 "/>
<path style=" stroke:none;fill-rule:nonzero;fill:rgb(100%,100%,100%);fill-opacity:1;" d="M 55.042969 249.710938 C 52.664062 249.710938 50.285156 248.546875 48.304688 246.515625 C 45.527344 243.613281 43.746094 239.257812 43.746094 234.320312 L 43.746094 88.851562 C 43.746094 81.882812 47.3125 75.785156 52.265625 74.332031 L 98.246094 58.941406 C 101.8125 57.78125 105.578125 58.941406 108.550781 61.847656 C 111.523438 65.039062 113.109375 69.6875 113.109375 74.621094 L 113.109375 216.027344 C 113.109375 223.285156 109.542969 229.675781 104.390625 231.417969 L 58.015625 249.128906 C 57.023438 249.417969 56.03125 249.710938 55.042969 249.710938 Z M 97.054688 70.558594 C 96.460938 70.558594 95.667969 70.558594 95.074219 70.847656 L 57.417969 84.785156 C 54.050781 85.945312 51.472656 90.59375 51.472656 95.820312 L 51.472656 226.480469 C 51.472656 229.964844 52.664062 233.449219 54.644531 235.480469 C 56.628906 237.515625 59.003906 238.386719 61.382812 237.222656 L 99.433594 221.253906 C 103 219.800781 105.578125 214.867188 105.578125 209.347656 L 105.578125 82.753906 C 105.578125 78.976562 104.390625 75.492188 102.40625 73.171875 C 100.625 71.429688 98.839844 70.558594 97.054688 70.558594 Z M 97.054688 70.558594 "/>
<path style=" stroke:none;fill-rule:nonzero;fill:rgb(51.764709%,0%,99.215686%);fill-opacity:1;" d="M 154.726562 168.699219 L 95.273438 194.832031 L 93.289062 29.328125 L 152.746094 9 Z M 154.726562 168.699219 "/>
<path style=" stroke:none;fill-rule:nonzero;fill:rgb(100%,100%,100%);fill-opacity:1;" d="M 100.625 197.734375 C 98.246094 197.734375 95.867188 196.574219 93.886719 194.542969 C 91.109375 191.636719 89.328125 187.28125 89.328125 182.347656 L 89.328125 36.296875 C 89.328125 29.328125 92.894531 23.230469 97.847656 21.777344 L 143.628906 6.386719 C 147.195312 5.226562 150.960938 6.386719 153.933594 9.292969 C 156.90625 12.484375 158.492188 17.132812 158.492188 22.066406 L 158.492188 163.761719 C 158.492188 171.023438 154.925781 177.410156 149.773438 179.152344 L 103.597656 196.863281 C 102.605469 197.445312 101.613281 197.734375 100.625 197.734375 Z M 142.636719 18.292969 C 142.042969 18.292969 141.25 18.292969 140.65625 18.582031 L 102.804688 32.519531 C 99.433594 33.683594 96.859375 38.328125 96.859375 43.554688 L 96.859375 174.214844 C 96.859375 177.699219 98.046875 181.183594 100.027344 183.21875 C 102.011719 185.25 104.585938 186.121094 106.964844 184.960938 L 144.816406 168.988281 C 148.386719 167.539062 150.960938 162.601562 150.960938 157.085938 L 150.960938 30.488281 C 150.960938 26.714844 149.773438 23.230469 147.789062 20.90625 C 146.207031 19.164062 144.421875 18.292969 142.636719 18.292969 Z M 142.636719 18.292969 "/>
<path style=" stroke:none;fill-rule:nonzero;fill:rgb(0.784314%,100%,85.882354%);fill-opacity:1;" d="M 200.308594 220.964844 L 140.855469 247.097656 L 138.871094 81.589844 L 198.328125 61.265625 Z M 200.308594 220.964844 "/>
<path style=" stroke:none;fill-rule:nonzero;fill:rgb(100%,100%,100%);fill-opacity:1;" d="M 144.816406 250 C 142.242188 250 139.863281 248.839844 137.683594 246.804688 C 134.710938 243.902344 132.925781 239.257812 132.925781 234.320312 L 132.925781 83.914062 C 132.925781 76.65625 136.691406 70.558594 141.84375 68.816406 L 190.398438 52.84375 C 194.164062 51.683594 198.128906 52.554688 201.300781 55.75 C 204.472656 58.941406 206.253906 63.878906 206.253906 68.816406 L 206.253906 214.867188 C 206.253906 222.125 202.488281 228.804688 197.136719 230.835938 L 148.1875 249.128906 C 147 249.710938 146.007812 250 144.816406 250 Z M 188.21875 70.558594 C 187.625 70.558594 186.832031 70.558594 186.238281 70.847656 L 148.582031 84.785156 C 145.214844 85.945312 142.636719 90.59375 142.636719 95.820312 L 142.636719 226.480469 C 142.636719 229.964844 143.828125 233.449219 145.808594 235.480469 C 147.789062 237.515625 150.167969 238.386719 152.546875 237.222656 L 190.597656 221.253906 C 194.164062 219.800781 196.742188 214.867188 196.742188 209.347656 L 196.742188 82.753906 C 196.742188 78.976562 195.554688 75.492188 193.570312 73.171875 C 191.789062 71.429688 190.003906 70.558594 188.21875 70.558594 Z M 188.21875 70.558594 "/>
<path style=" stroke:none;fill-rule:nonzero;fill:rgb(51.764709%,0%,99.215686%);fill-opacity:1;" d="M 245.890625 165.796875 L 186.4375 191.929688 L 184.453125 26.421875 L 243.910156 6.097656 Z M 245.890625 165.796875 "/>
<path style=" stroke:none;fill-rule:nonzero;fill:rgb(100%,100%,100%);fill-opacity:1;" d="M 188.417969 197.734375 C 185.84375 197.734375 183.464844 196.574219 181.285156 194.542969 C 178.3125 191.636719 176.527344 186.992188 176.527344 182.054688 L 176.527344 31.648438 C 176.527344 24.390625 180.292969 18.292969 185.445312 16.550781 L 234 0.582031 C 237.765625 -0.582031 241.730469 0.289062 244.898438 3.484375 C 248.070312 6.679688 249.855469 11.613281 249.855469 16.550781 L 249.855469 162.601562 C 249.855469 169.859375 246.089844 176.539062 240.738281 178.570312 L 191.789062 196.863281 C 190.597656 197.445312 189.605469 197.734375 188.417969 197.734375 Z M 231.820312 18.292969 C 231.226562 18.292969 230.433594 18.292969 229.839844 18.582031 L 192.183594 32.519531 C 188.816406 33.683594 186.238281 38.328125 186.238281 43.554688 L 186.238281 174.214844 C 186.238281 177.699219 187.425781 181.183594 189.410156 183.21875 C 191.390625 185.25 193.769531 186.121094 196.148438 184.960938 L 234.199219 168.988281 C 237.765625 167.539062 240.34375 162.601562 240.34375 157.085938 L 240.34375 30.488281 C 240.34375 26.714844 239.152344 23.230469 237.171875 20.90625 C 235.386719 19.164062 233.605469 18.292969 231.820312 18.292969 Z M 231.820312 18.292969 "/>
</g>
</svg>
